source/img/sprite/reddit.svg

<svg width="30" height="30" viewBox="0 0 30 30" fill="none" xmlns="http://www.w3.org/2000/svg">
<path d="M0.5 0.5H29.5V29.5H0.5V0.5Z" stroke="#2D383F" stroke-opacity="0.3"/>
<path d="M16.3617 7C15.9128 7 15.4915 7.24401 15.2213 7.59589C14.9511 7.94777 14.8021 8.37671 14.6936 8.82877C14.5213 9.55565 14.4681 10.3622 14.4553 11.089C13.1936 11.1789 12.0511 11.5796 11.1021 12.1986C10.717 11.8519 10.2532 11.6592 9.80849 11.6644C9.3021 11.6695 8.82125 11.9033 8.4638 12.3836C7.78082 13.3005 7.85955 14.8005 8.65104 15.6918C8.6021 15.9666 8.56593 16.2491 8.56593 16.5342C8.56593 19.5548 11.4468 22 15 22C18.5532 22 21.4341 19.5522 21.4341 16.5342C21.4341 16.2491 21.3979 15.9666 21.349 15.6918C22.1405 14.8005 22.2192 13.3005 21.5362 12.3836C21.1788 11.9033 20.6979 11.6695 20.1915 11.6644C19.7468 11.6592 19.283 11.8519 18.8979 12.1986C17.9532 11.5822 16.817 11.1815 15.5617 11.089C15.5787 10.4187 15.6234 9.7226 15.7489 9.19863C15.8277 8.86986 15.9213 8.63099 16.0213 8.5C16.1213 8.36901 16.1936 8.31507 16.3617 8.31507C16.7255 8.31507 16.7723 8.44092 16.9915 8.74658C17.1021 8.90068 17.2298 9.09332 17.4341 9.28082C17.6383 9.46832 17.9404 9.63014 18.2681 9.63014V8.31507C18.1766 8.31507 18.1596 8.3125 18.0979 8.25342C18.0362 8.19435 17.9511 8.05822 17.8255 7.88356C17.5745 7.53168 17.0872 7 16.3617 7ZM19.9021 7.12329C19.0553 7.12329 18.3702 7.95034 18.3702 8.9726C18.3702 9.99486 19.0553 10.8219 19.9021 10.8219C20.749 10.8219 21.4341 9.99486 21.4341 8.9726C21.4341 7.95034 20.749 7.12329 19.9021 7.12329ZM19.9021 7.78082C20.4468 7.78082 20.8894 8.31507 20.8894 8.9726C20.8894 9.63014 20.4468 10.1644 19.9021 10.1644C19.3575 10.1644 18.9149 9.63014 18.9149 8.9726C18.9149 8.31507 19.3575 7.78082 19.9021 7.78082ZM15 12.1164C18.0149 12.1164 20.566 14.143 20.566 16.5342C20.566 18.9281 18.0149 20.9521 15 20.9521C11.9851 20.9521 9.43402 18.9281 9.43402 16.5342C9.43402 14.143 11.9851 12.1164 15 12.1164ZM9.82551 12.7123C9.97658 12.7149 10.134 12.756 10.2851 12.8356C9.73828 13.3365 9.30423 13.9118 9.00849 14.5616C8.80423 14.0531 8.85955 13.4187 9.11061 13.0822C9.29359 12.8356 9.54679 12.7098 9.82551 12.7123ZM20.1745 12.7123C20.4532 12.7098 20.7064 12.8356 20.8894 13.0822C21.1405 13.4187 21.1958 14.0531 20.9915 14.5616C20.6958 13.9118 20.2617 13.3365 19.7149 12.8356C19.866 12.756 20.0234 12.7149 20.1745 12.7123ZM12.8213 14.3562C12.2766 14.3562 11.834 14.8904 11.834 15.5479C11.834 16.2055 12.2766 16.7397 12.8213 16.7397C13.366 16.7397 13.8085 16.2055 13.8085 15.5479C13.8085 14.8904 13.366 14.3562 12.8213 14.3562ZM17.1787 14.3562C16.6341 14.3562 16.1915 14.8904 16.1915 15.5479C16.1915 16.2055 16.6341 16.7397 17.1787 16.7397C17.7234 16.7397 18.166 16.2055 18.166 15.5479C18.166 14.8904 17.7234 14.3562 17.1787 14.3562ZM12.2936 18.4041C12.6404 19.2697 13.7128 20.1096 15 20.1096C16.2872 20.1096 17.3766 19.2697 17.7234 18.4041C17.0936 18.8947 16.1 19.226 15 19.226C13.9 19.226 12.9234 18.8947 12.2936 18.4041Z" fill="#2D383F"/>
</svg>

<svg viewBox="0 0 30 30" fill="none" xmlns="http://www.w3.org/2000/svg"><path d="M.5.5h29v29h-29v-29Z" stroke="#2D383F" stroke-opacity=".3"/><path d="M16.36 7c-.45 0-.87.24-1.14.6-.27.35-.42.78-.53 1.23-.17.73-.22 1.53-.23 2.26-1.27.09-2.4.49-3.36 1.1a1.94 1.94 0 0 0-1.3-.53c-.5 0-.98.24-1.34.72-.68.92-.6 2.42.2 3.31-.06.28-.1.56-.1.84 0 3.02 2.89 5.47 6.44 5.47 3.55 0 6.43-2.45 6.43-5.47 0-.28-.03-.56-.08-.84.79-.89.87-2.39.19-3.3a1.67 1.67 0 0 0-1.35-.73c-.44 0-.9.2-1.3.54a7.03 7.03 0 0 0-3.33-1.11c.02-.67.06-1.37.19-1.9a2 2 0 0 1 .27-.69c.1-.13.17-.18.34-.18.37 0 .41.12.63.43.11.15.24.34.44.53s.51.35.84.35v-1.31c-.1 0-.11 0-.17-.07-.06-.06-.15-.2-.27-.37-.26-.35-.74-.88-1.47-.88Zm3.54.12c-.84 0-1.53.83-1.53 1.85s.69 1.85 1.53 1.85c.85 0 1.53-.83 1.53-1.85s-.68-1.85-1.53-1.85Zm0 .66c.55 0 .99.54.99 1.2 0 .65-.44 1.18-.99 1.18-.54 0-.99-.53-.99-1.19 0-.65.45-1.19 1-1.19Zm-4.9 4.34c3.01 0 5.57 2.02 5.57 4.41 0 2.4-2.56 4.42-5.57 4.42-3.01 0-5.57-2.02-5.57-4.42 0-2.39 2.56-4.41 5.57-4.41Zm-5.17.6c.15 0 .3.04.46.12a5.2 5.2 0 0 0-1.28 1.72c-.2-.5-.15-1.14.1-1.48a.86.86 0 0 1 .72-.37Zm10.34 0c.28-.01.54.12.72.36.25.34.3.97.1 1.48a5.34 5.34 0 0 0-1.28-1.72c.16-.08.31-.13.46-.13Zm-7.35 1.64c-.54 0-.99.53-.99 1.19 0 .66.45 1.19 1 1.19.54 0 .98-.53.98-1.2 0-.65-.44-1.18-.99-1.18Zm4.36 0c-.55 0-.99.53-.99 1.19 0 .66.44 1.19.99 1.19.54 0 .99-.53.99-1.2 0-.65-.45-1.18-1-1.18Zm-4.89 4.04a2.98 2.98 0 0 0 2.71 1.71 3 3 0 0 0 2.72-1.7c-.63.48-1.62.82-2.72.82s-2.08-.34-2.7-.83Z" fill="#2D383F"/></svg>
